X:039
U: ~ = !turn!
%%topmargin 3cm
T:Cronin's Fancy
U: ~ = !turn!
%%topmargin 3cm
T:Hornpipe
B:Traditional Irish Fiddle Tunes. Randy Miller and Jack Perron.
S:Sean McGuire
Z:Transcribed by Ralph Palmer
R:Hornpipe
M:C|
L:1/8
K:D
d3 A BAFB | AF (3.F.F.F EFDE | F2 AF JG2 BG | ABde feeg |
fedf edBc | dBAF EFDE | FGAF GFGB | [1ABde fd d2 :| [2 ABde fddf ||
|: a2 fa {ga}g2 eg | fedf ec A2 | a^gab afdB | ABde {/g}feeg|
fg ((3agf) {ga}g2 eg | fedf ecAG | F2 AF JG2 BG | [1 ABde fddf :| [2 ABde fd d2 ||
